elementary-xfce/mimes/48/application-x-partial-download.svg

<?xml version="1.0" encoding="UTF-8" standalone="no"?>
<svg
   id="svg3901"
   height="48"
   width="48"
   version="1.1"
   sodipodi:docname="application-x-partial-download.svg"
   inkscape:version="1.1.1 (3bf5ae0d25, 2021-09-20)"
   xmlns:inkscape="http://www.inkscape.org/namespaces/inkscape"
   xmlns:sodipodi="http://sodipodi.sourceforge.net/DTD/sodipodi-0.dtd"
   xmlns:xlink="http://www.w3.org/1999/xlink"
   xmlns="http://www.w3.org/2000/svg"
   xmlns:svg="http://www.w3.org/2000/svg"
   xmlns:rdf="http://www.w3.org/1999/02/22-rdf-syntax-ns#"
   xmlns:cc="http://creativecommons.org/ns#"
   xmlns:dc="http://purl.org/dc/elements/1.1/">
  <sodipodi:namedview
     id="namedview41"
     pagecolor="#ffffff"
     bordercolor="#666666"
     borderopacity="1.0"
     inkscape:pageshadow="2"
     inkscape:pageopacity="0.0"
     inkscape:pagecheckerboard="0"
     showgrid="false"
     inkscape:zoom="22.056921"
     inkscape:cx="24.00607"
     inkscape:cy="19.812375"
     inkscape:window-width="1317"
     inkscape:window-height="890"
     inkscape:window-x="890"
     inkscape:window-y="50"
     inkscape:window-maximized="0"
     inkscape:current-layer="svg3901" />
  <defs
     id="defs3903">
    <linearGradient
       id="linearGradient855">
      <stop
         id="stop851"
         offset="0"
         style="stop-color:#a56de2;stop-opacity:1" />
      <stop
         id="stop853"
         offset="1"
         style="stop-color:#7239b3;stop-opacity:1" />
    </linearGradient>
    <linearGradient
       id="linearGradient3403">
      <stop
         id="stop3405"
         style="stop-color:#ffffff;stop-opacity:1"
         offset="0" />
      <stop
         id="stop3407"
         style="stop-color:#ffffff;stop-opacity:0.23529412"
         offset="0" />
      <stop
         id="stop3409"
         style="stop-color:#ffffff;stop-opacity:0.15686275"
         offset="1" />
      <stop
         id="stop3411"
         style="stop-color:#ffffff;stop-opacity:0.39215687"
         offset="1" />
    </linearGradient>
    <linearGradient
       id="linearGradient3600">
      <stop
         offset="0"
         style="stop-color:#f4f4f4;stop-opacity:1"
         id="stop3602" />
      <stop
         offset="1"
         style="stop-color:#dbdbdb;stop-opacity:1"
         id="stop3604" />
    </linearGradient>
    <linearGradient
       id="linearGradient5060">
      <stop
         offset="0"
         style="stop-color:#000000;stop-opacity:1"
         id="stop5062" />
      <stop
         offset="1"
         style="stop-color:#000000;stop-opacity:0"
         id="stop5064" />
    </linearGradient>
    <linearGradient
       id="linearGradient5048">
      <stop
         offset="0"
         style="stop-color:#000000;stop-opacity:0"
         id="stop5050" />
      <stop
         offset="0.5"
         style="stop-color:#000000;stop-opacity:1"
         id="stop5056" />
      <stop
         offset="1"
         style="stop-color:#000000;stop-opacity:0"
         id="stop5052" />
    </linearGradient>
    <linearGradient
       id="linearGradient3104-6">
      <stop
         id="stop3106-3"
         style="stop-color:#000000;stop-opacity:0.31782946"
         offset="0" />
      <stop
         id="stop3108-9"
         style="stop-color:#000000;stop-opacity:0.24031007"
         offset="1" />
    </linearGradient>
    <linearGradient
       y2="42.110645"
       x2="23.99999"
       y1="5.9404659"
       x1="23.99999"
       gradientTransform="matrix(0.89189189,0,0,1.1351351,2.5945999,-4.7432314)"
       gradientUnits="userSpaceOnUse"
       id="linearGradient3106"
       xlink:href="#linearGradient3403" />
    <linearGradient
       y2="47.013336"
       x2="25.132275"
       y1="0.98520643"
       x1="25.132275"
       gradientTransform="matrix(0.97142632,0,0,0.93431938,0.68576678,-1.3569996)"
       gradientUnits="userSpaceOnUse"
       id="linearGradient3109"
       xlink:href="#linearGradient3600" />
    <radialGradient
       r="117.14286"
       fy="486.64789"
       fx="605.71429"
       cy="486.64789"
       cx="605.71429"
       gradientTransform="matrix(0.02303995,0,0,0.01470022,26.360882,37.040176)"
       gradientUnits="userSpaceOnUse"
       id="radialGradient3112"
       xlink:href="#linearGradient5060" />
    <radialGradient
       r="117.14286"
       fy="486.64789"
       fx="605.71429"
       cy="486.64789"
       cx="605.71429"
       gradientTransform="matrix(-0.02303994,0,0,0.01470022,21.62311,37.040176)"
       gradientUnits="userSpaceOnUse"
       id="radialGradient3115"
       xlink:href="#linearGradient5060" />
    <linearGradient
       y2="609.50507"
       x2="302.85715"
       y1="366.64789"
       x1="302.85715"
       gradientTransform="matrix(0.06732488,0,0,0.01470022,-0.3411391,37.040146)"
       gradientUnits="userSpaceOnUse"
       id="linearGradient3118"
       xlink:href="#linearGradient5048" />
    <linearGradient
       y2="2.9062471"
       x2="-51.786404"
       y1="50.786446"
       x1="-51.786404"
       gradientTransform="matrix(0.80749686,0,0,0.89471714,59.410232,-2.9773433)"
       gradientUnits="userSpaceOnUse"
       id="linearGradient3170"
       xlink:href="#linearGradient3104-6" />
    <linearGradient
       gradientUnits="userSpaceOnUse"
       y2="54.350002"
       x2="36.868137"
       y1="6.2374997"
       x1="36.868137"
       id="linearGradient857"
       xlink:href="#linearGradient855" />
  </defs>
  <metadata
     id="metadata3906">
    <rdf:RDF>
      <cc:Work
         rdf:about="">
        <dc:format>image/svg+xml</dc:format>
        <dc:type
           rdf:resource="http://purl.org/dc/dcmitype/StillImage" />
      </cc:Work>
    </rdf:RDF>
  </metadata>
  <rect
     width="32.508301"
     height="3.5700529"
     x="7.7378473"
     y="42.429947"
     id="rect2879"
     style="opacity:0.3;fill:url(#linearGradient3118);fill-opacity:1;fill-rule:nonzero;stroke:none;stroke-width:1;marker:none;visibility:visible;display:inline;overflow:visible" />
  <path
     d="m 7.7378475,42.430102 c 0,0 0,3.569856 0,3.569856 -1.1865002,0.0067 -2.8683795,-0.799823 -2.8683795,-1.785158 0,-0.985333 1.3240446,-1.784697 2.8683795,-1.784698 z"
     id="path2881"
     style="opacity:0.3;fill:url(#radialGradient3115);fill-opacity:1;fill-rule:nonzero;stroke:none;stroke-width:1;marker:none;visibility:visible;display:inline;overflow:visible" />
  <path
     d="m 40.246148,42.430102 c 0,0 0,3.569856 0,3.569856 1.1865,0.0067 2.86838,-0.799823 2.86838,-1.785158 0,-0.985333 -1.324045,-1.784697 -2.86838,-1.784698 z"
     id="path2883"
     style="opacity:0.3;fill:url(#radialGradient3112);fill-opacity:1;fill-rule:nonzero;stroke:none;stroke-width:1;marker:none;visibility:visible;display:inline;overflow:visible" />
  <path
     d="m 7,1.0000001 c 7.791126,0 33.999959,0.00274 33.999959,0.00274 L 41,44 C 41,44 18.333334,44 7,44 7,29.666666 7,15.333333 7,1 z"
     id="path4160"
     style="fill:url(#linearGradient3109);fill-opacity:1;stroke:none;display:inline" />
  <path
     d="m 40.5,43.5 -33,0 0,-41.9999998 33,0 z"
     id="rect6741-1"
     style="fill:none;stroke:url(#linearGradient3106);stroke-width:1;stroke-linecap:round;stroke-linejoin:miter;stroke-miterlimit:4;stroke-opacity:1;stroke-dasharray:none;stroke-dashoffset:0" />
  <path
     d="m 6.4999605,0.4999623 c 8.0202885,0 35.0000415,0.00298 35.0000415,0.00298 l 3.7e-5,43.9970957 c 0,0 -23.333385,0 -35.0000785,0 0,-14.666738 0,-29.333326 0,-43.9998923 z"
     id="path4160-6-1"
     style="fill:none;stroke:url(#linearGradient3170);stroke-width:0.99992192;stroke-linecap:butt;stroke-linejoin:round;stroke-miterlimit:4;stroke-opacity:1;stroke-dasharray:none;stroke-dashoffset:0;display:inline" />
  <path
     id="path10725"
     d="m 23,19.999996 v 3 h 2 v -3 z m 2,3 v 3 h -2 v -3 h -3 v 3 H 14 L 24,39 34,25.999996 h -6 v -3 z"
     style="color:#bebebe;display:inline;overflow:visible;visibility:visible;fill:#68b723;fill-opacity:1;fill-rule:nonzero;stroke:none;stroke-width:1;marker:none;enable-background:accumulate"
     sodipodi:nodetypes="ccccccccccccccccc" />
  <path
     id="rect867"
     d="m 22.999997,8 v 3 h 2 V 8 Z m 2,3 v 3 h 3 v -3 z m 0,3 h -2 v 3 h 2 z m -2,0 v -3 h -3 v 3 z"
     style="display:inline;opacity:0.2;vector-effect:none;fill:#68b723;fill-opacity:1;stroke:none;stroke-width:2;stroke-opacity:1;marker:none;enable-background:new"
     sodipodi:nodetypes="cccccccccccccccccccc" />
  <path
     id="rect875"
     d="m 19.999997,14 v 3 h 3 v -3 z m 3,3 v 3 h 2 3 v -3 -3 h -3 v 3 z m 0,3 h -3 v 3 h 3 z"
     style="display:inline;opacity:0.6;vector-effect:none;fill:#68b723;fill-opacity:1;stroke:none;stroke-width:2;stroke-opacity:1;marker:none;enable-background:new"
     sodipodi:nodetypes="ccccccccccccccccccc" />
</svg>

<?xml version="1.0" encoding="UTF-8" standalone="no"?>
<svg
   xmlns:dc="http://purl.org/dc/elements/1.1/"
   xmlns:cc="http://creativecommons.org/ns#"
   xmlns:rdf="http://www.w3.org/1999/02/22-rdf-syntax-ns#"
   xmlns:svg="http://www.w3.org/2000/svg"
   xmlns="http://www.w3.org/2000/svg"
   xmlns:xlink="http://www.w3.org/1999/xlink"
   height="48"
   id="svg11300"
   style="display:inline;enable-background:new"
   version="1.0"
   viewBox="0 0 48 48"
   width="48">
  <metadata
     id="metadata155">
    <rdf:RDF>
      <cc:Work
         rdf:about="">
        <dc:format>image/svg+xml</dc:format>
        <dc:type
           rdf:resource="http://purl.org/dc/dcmitype/StillImage" />
        <dc:title>elementary Icon Template</dc:title>
      </cc:Work>
    </rdf:RDF>
  </metadata>
  <title
     id="title4162">elementary Icon Template</title>
  <defs
     id="defs3">
    <linearGradient
       id="linearGradient10457">
      <stop
         id="stop10453"
         offset="0"
         style="stop-color:#000000;stop-opacity:1;" />
      <stop
         id="stop10455"
         offset="1"
         style="stop-color:#000000;stop-opacity:0;" />
    </linearGradient>
    <linearGradient
       id="linearGradient3977">
      <stop
         id="stop3979"
         offset="0"
         style="stop-color:#ffffff;stop-opacity:1" />
      <stop
         id="stop3981"
         offset="0"
         style="stop-color:#ffffff;stop-opacity:0.23529412" />
      <stop
         id="stop3983"
         offset="1"
         style="stop-color:#ffffff;stop-opacity:0.15686275" />
      <stop
         id="stop3985"
         offset="1"
         style="stop-color:#ffffff;stop-opacity:0.39215687" />
    </linearGradient>
    <linearGradient
       id="linearGradient3600">
      <stop
         id="stop3602"
         offset="0"
         style="stop-color:#f4f4f4;stop-opacity:1" />
      <stop
         id="stop3604"
         offset="1"
         style="stop-color:#dbdbdb;stop-opacity:1" />
    </linearGradient>
    <linearGradient
       id="linearGradient5048">
      <stop
         id="stop5050"
         offset="0"
         style="stop-color:#000000;stop-opacity:0" />
      <stop
         id="stop5056"
         offset="0.5"
         style="stop-color:#000000;stop-opacity:1" />
      <stop
         id="stop5052"
         offset="1"
         style="stop-color:#000000;stop-opacity:0" />
    </linearGradient>
    <linearGradient
       id="linearGradient3104-6">
      <stop
         id="stop3106-3"
         offset="0"
         style="stop-color:#000000;stop-opacity:0.31782946" />
      <stop
         id="stop3108-9"
         offset="1"
         style="stop-color:#000000;stop-opacity:0.24031007" />
    </linearGradient>
    <linearGradient
       gradientTransform="matrix(0.89189189,0,0,1.1351351,130.72513,158.25677)"
       gradientUnits="userSpaceOnUse"
       xlink:href="#linearGradient3977"
       id="linearGradient3106"
       x1="23.99999"
       x2="23.99999"
       y1="5.9404659"
       y2="42.110645" />
    <linearGradient
       gradientTransform="matrix(0.97142632,0,0,0.93431938,128.8163,161.643)"
       gradientUnits="userSpaceOnUse"
       xlink:href="#linearGradient3600"
       id="linearGradient3109"
       x1="25.132275"
       x2="25.132275"
       y1="0.98520643"
       y2="47.013336" />
    <linearGradient
       gradientTransform="matrix(0.06627219,0,0,0.01647059,128.04733,198.9611)"
       gradientUnits="userSpaceOnUse"
       xlink:href="#linearGradient5048"
       id="linearGradient3118"
       x1="302.85715"
       x2="302.85715"
       y1="366.64789"
       y2="609.50507" />
    <linearGradient
       gradientTransform="matrix(0.80749686,0,0,0.89471714,187.54076,160.02266)"
       gradientUnits="userSpaceOnUse"
       xlink:href="#linearGradient3104-6"
       id="linearGradient3170"
       x1="-51.786404"
       x2="-51.786404"
       y1="50.786446"
       y2="2.9062471" />
    <radialGradient
       cx="605.71429"
       cy="486.64789"
       fx="605.71429"
       fy="486.64789"
       gradientTransform="matrix(-0.02506223,0,0,0.01647136,151.10402,198.96068)"
       gradientUnits="userSpaceOnUse"
       xlink:href="#linearGradient10457"
       id="radialGradient7062"
       r="117.14286" />
    <radialGradient
       cx="605.71429"
       cy="486.64789"
       fx="605.71429"
       fy="486.64789"
       gradientTransform="matrix(0.02506223,0,0,0.01647136,152.89598,198.96068)"
       gradientUnits="userSpaceOnUse"
       xlink:href="#linearGradient10457"
       id="radialGradient7066"
       r="117.14286" />
  </defs>
  <g
     id="g153"
     transform="translate(-128,-163)">
    <path
       d="m 136,205.00001 v 3.99994 c -1.29065,0.008 -3.12015,-0.8962 -3.12015,-2.00025 0,-1.10405 1.44026,-1.99969 3.12015,-1.99969 z"
       id="path7060"
       style="display:inline;overflow:visible;visibility:visible;opacity:0.15;fill:url(#radialGradient7062);fill-opacity:1;fill-rule:nonzero;stroke:none;stroke-width:1;marker:none" />
    <rect
       height="4"
       id="rect2879-9"
       style="display:inline;overflow:visible;visibility:visible;opacity:0.15;fill:url(#linearGradient3118);fill-opacity:1;fill-rule:nonzero;stroke:none;stroke-width:1;marker:none"
       width="32"
       x="136"
       y="205" />
    <path
       d="m 168,205.00001 v 3.99994 c 1.29065,0.008 3.12015,-0.8962 3.12015,-2.00025 0,-1.10405 -1.44026,-1.99969 -3.12015,-1.99969 z"
       id="path7064"
       style="display:inline;overflow:visible;visibility:visible;opacity:0.15;fill:url(#radialGradient7066);fill-opacity:1;fill-rule:nonzero;stroke:none;stroke-width:1;marker:none" />
    <path
       d="m 135.13053,164 c 7.79113,0 33.99996,0.003 33.99996,0.003 l 4e-5,42.99726 h -34 v -43 z"
       id="path4160-89"
       style="display:inline;fill:url(#linearGradient3109);fill-opacity:1;stroke:none" />
    <path
       d="m 168.63053,206.5 h -33 v -42 h 33 z"
       id="rect6741-1-73"
       style="fill:none;stroke:url(#linearGradient3106);stroke-width:1;stroke-linecap:round;stroke-linejoin:miter;stroke-miterlimit:4;stroke-dasharray:none;stroke-dashoffset:0;stroke-opacity:1" />
    <path
       d="m 134.63049,163.49996 c 8.02029,0 35.00004,0.003 35.00004,0.003 l 4e-5,43.9971 h -35.00008 v -43.99989 z"
       id="path4160-6-1-6"
       style="display:inline;fill:none;stroke:url(#linearGradient3170);stroke-width:0.99992192;stroke-linecap:butt;stroke-linejoin:round;stroke-miterlimit:4;stroke-dasharray:none;stroke-dashoffset:0;stroke-opacity:1" />
    <path
       id="path10725"
       transform="translate(128,163)"
       d="M 23 20 L 23 23 L 25 23 L 25 20 L 23 20 z M 25 23 L 25 26 L 23 26 L 23 23 L 20 23 L 20 26 L 19.714844 26 L 18 26 L 14 26 L 24 38.919922 L 34 26 L 31.714844 26 L 30 26 L 28.287109 26.001953 L 28.287109 26 L 28 26 L 28 23 L 25 23 z "
       style="color:#bebebe;display:inline;overflow:visible;visibility:visible;fill:#68b723;fill-opacity:1;fill-rule:nonzero;stroke:none;stroke-width:0.99999994;marker:none;enable-background:accumulate" />
  </g>
  <path
     id="rect867"
     d="M 23 8 L 23 11 L 25 11 L 25 8 L 23 8 z M 25 11 L 25 14 L 28 14 L 28 11 L 25 11 z M 25 14 L 23 14 L 23 17 L 25 17 L 25 14 z M 23 14 L 23 11 L 20 11 L 20 14 L 23 14 z "
     style="opacity:0.2;vector-effect:none;fill:#68b723;fill-opacity:1;stroke:none;stroke-width:2;stroke-opacity:1;marker:none" />
  <path
     id="rect875"
     d="M 20 14 L 20 17 L 23 17 L 23 14 L 20 14 z M 23 17 L 23 20 L 25 20 L 28 20 L 28 17 L 28 14 L 25 14 L 25 17 L 23 17 z M 23 20 L 20 20 L 20 23 L 23 23 L 23 20 z "
     style="opacity:0.6;vector-effect:none;fill:#68b723;fill-opacity:1;stroke:none;stroke-width:2;stroke-opacity:1;marker:none" />
</svg>
